X: 39300
T: Take The Whistle
R: jig
M: 6/8
K: Dmajor
|BAF DEF|ABA ~f3|def edB|ABd BAF|
BAF DEF|ABA f2e|def edB|1 AFA B2A:|2 AFA B2e||
faa ^gbb|afd BAB|dBA FED|EFA ~f3|
faa ^gbb|afd BAB|def edB|AFA B2A|
faa ^gbb|afd BAB|dBA FED|EFA ~f3|
faa ^gbb|afd Bde|fed edB|AFA B3||

